svg/view_module_outline.svg

<svg xmlns="http://www.w3.org/2000/svg" viewBox="0 0 24 24"><path d="M4 5v13h17V5zm10 2v3.5h-3V7zM6 7h3v3.5H6zm0 9v-3.5h3V16zm5 0v-3.5h3V16zm8 0h-3v-3.5h3zm-3-5.5V7h3v3.5z"/></svg>

<?xml version="1.0" encoding="UTF-8"?><!DOCTYPE svg PUBLIC "-//W3C//DTD SVG 1.1//EN" "http://www.w3.org/Graphics/SVG/1.1/DTD/svg11.dtd"><svg xmlns="http://www.w3.org/2000/svg" xmlns:xlink="http://www.w3.org/1999/xlink" version="1.1" id="mdi-view-module-outline" width="24" height="24" viewBox="0 0 24 24"><path d="M4 5V18H21V5H4M14 7V10.5H11V7H14M6 7H9V10.5H6V7M6 16V12.5H9V16H6M11 16V12.5H14V16H11M19 16H16V12.5H19V16M16 10.5V7H19V10.5H16Z" /></svg>
